app/ui/icons/svg/align-right.svg

<svg xmlns="http://www.w3.org/2000/svg" width="8" height="8" viewBox="0 0 8 8">
  <path style="fill: #ffffff;" d="M0 0v1h8v-1h-8zm2 2v1h6v-1h-6zm-2 2v1h8v-1h-8zm2 2v1h6v-1h-6z" />
</svg>

<?xml version="1.0" encoding="UTF-8" standalone="no"?>
<svg
   xmlns:dc="http://purl.org/dc/elements/1.1/"
   xmlns:cc="http://creativecommons.org/ns#"
   xmlns:rdf="http://www.w3.org/1999/02/22-rdf-syntax-ns#"
   xmlns:svg="http://www.w3.org/2000/svg"
   xmlns="http://www.w3.org/2000/svg"
   xmlns:sodipodi="http://sodipodi.sourceforge.net/DTD/sodipodi-0.dtd"
   xmlns:inkscape="http://www.inkscape.org/namespaces/inkscape"
   width="8"
   height="8"
   viewBox="0 0 8 8"
   version="1.1"
   id="svg4"
   sodipodi:docname="align-right.svg"
   inkscape:version="0.92.4 5da689c313, 2019-01-14">
  <metadata
     id="metadata10">
    <rdf:RDF>
      <cc:Work
         rdf:about="">
        <dc:format>image/svg+xml</dc:format>
        <dc:type
           rdf:resource="http://purl.org/dc/dcmitype/StillImage" />
        <dc:title></dc:title>
      </cc:Work>
    </rdf:RDF>
  </metadata>
  <defs
     id="defs8" />
  <sodipodi:namedview
     pagecolor="#a9a9a9"
     bordercolor="#666666"
     borderopacity="1"
     objecttolerance="10"
     gridtolerance="10"
     guidetolerance="10"
     inkscape:pageopacity="0"
     inkscape:pageshadow="2"
     inkscape:window-width="2560"
     inkscape:window-height="1386"
     id="namedview6"
     showgrid="false"
     inkscape:zoom="41.7193"
     inkscape:cx="1.335359"
     inkscape:cy="3.7319282"
     inkscape:window-x="0"
     inkscape:window-y="28"
     inkscape:window-maximized="1"
     inkscape:current-layer="layer2" />
  <g
     inkscape:groupmode="layer"
     id="layer1"
     inkscape:label="Layer 1"
     style="display:none"
     sodipodi:insensitive="true">
    <path
       style="fill:#ffffff"
       d="M 0,0 V 1 H 8 V 0 Z M 2,2 V 3 H 8 V 2 Z M 0,4 V 5 H 8 V 4 Z M 2,6 V 7 H 8 V 6 Z"
       id="path2"
       inkscape:connector-curvature="0" />
  </g>
  <g
     inkscape:groupmode="layer"
     id="layer2"
     inkscape:label="Layer 2"
     sodipodi:insensitive="true">
    <rect
       style="opacity:1;fill:#d5d5d5;fill-opacity:0.98952876;stroke:none;stroke-width:2.18309355;stroke-linecap:round;stroke-linejoin:round;stroke-miterlimit:4;stroke-dasharray:none;stroke-opacity:1"
       id="rect819"
       width="8"
       height="1"
       x="0"
       y="0"
       rx="0.303"
       ry="0.30000001" />
    <rect
       ry="0.30000001"
       rx="0.303"
       y="2.001472"
       x="2.0134568"
       height="1"
       width="5.9865432"
       id="rect823"
       style="opacity:1;fill:#d5d5d5;fill-opacity:0.98952876;stroke:none;stroke-width:1.88849318;stroke-linecap:round;stroke-linejoin:round;stroke-miterlimit:4;stroke-dasharray:none;stroke-opacity:1" />
    <rect
       style="opacity:1;fill:#d5d5d5;fill-opacity:0.98952876;stroke:none;stroke-width:1.88849318;stroke-linecap:round;stroke-linejoin:round;stroke-miterlimit:4;stroke-dasharray:none;stroke-opacity:1"
       id="rect825"
       width="5.9865432"
       height="1"
       x="2.0134568"
       y="6.004415"
       rx="0.303"
       ry="0.30000001" />
    <rect
       ry="0.30000001"
       rx="0.303"
       y="3.9999995"
       x="0"
       height="1"
       width="8"
       id="rect829"
       style="opacity:1;fill:#d5d5d5;fill-opacity:0.98952876;stroke:none;stroke-width:2.18309355;stroke-linecap:round;stroke-linejoin:round;stroke-miterlimit:4;stroke-dasharray:none;stroke-opacity:1" />
  </g>
</svg>
